X:30
T:Con Cassidy's Highland
R:highland
D:Altan: Horse with a Heart
Z:id:hn-hf-30
M:C|
L:1/8
K:Amix
c<AAG EAAB | cBA^g agae | c<AAG EAA=c | (3BBB GB dged :|
K:Ador
~c3e gedB | cBAb aged | cB^cd efge | dBGB dged |
~c3e gedB | cBAg abga | (3bag af gage | dBGe (3fga ed ||

